build/img/sprite/icon-star.svg

<svg width="46" height="46" viewBox="0 0 46 46" fill="none" xmlns="http://www.w3.org/2000/svg">
<rect width="46" height="46" fill="#9D15A0"/>
<path d="M23 32.4107L29.7898 36.5173C31.0332 37.27 32.5548 36.1574 32.2276 34.7503L30.4279 27.0279L36.4323 21.825C37.5285 20.8761 36.9395 19.0764 35.4998 18.9618L27.5974 18.291L24.5052 10.9939C23.9489 9.66869 22.0511 9.66869 21.4948 10.9939L18.4026 18.2747L10.5002 18.9455C9.06047 19.06 8.47147 20.8597 9.56766 21.8087L15.5721 27.0115L13.7724 34.734C13.4452 36.141 14.9668 37.2536 16.2102 36.501L23 32.4107Z" fill="white"/>
</svg>

<svg width="46" height="46" fill="none" xmlns="http://www.w3.org/2000/svg"><path fill="#9D15A0" d="M0 0h46v46H0z"/><path d="m23 32.41 6.79 4.107c1.243.753 2.765-.36 2.438-1.767l-1.8-7.722 6.004-5.203c1.096-.949.508-2.749-.932-2.863l-7.903-.671-3.092-7.297c-.556-1.325-2.454-1.325-3.01 0l-3.092 7.28-7.903.671c-1.44.115-2.029 1.915-.932 2.864l6.004 5.203-1.8 7.722c-.327 1.407 1.195 2.52 2.438 1.767l6.79-4.09Z" fill="#fff"/></svg>
